src/cmd/lc_graphicfilterrelief.svg

<svg viewBox="0 0 24 24" xmlns="http://www.w3.org/2000/svg"><path d="m11 18c-.552285 0-1 .447715-1 1s.447715 1 1 1 1-.447715 1-1-.447715-1-1-1zm4 0c-.552285 0-1 .447715-1 1s.447715 1 1 1 1-.447715 1-1-.447715-1-1-1zm4 0c-.552285 0-1 .447715-1 1s.447715 1 1 1 1-.447715 1-1-.447715-1-1-1z" fill="#e95420"/><path d="m5 5v14h4v-1h-3v-12h12v11h1v-12zm4 4v6h6v-6zm1 1h4v4h-4z" fill="#232629"/><path d="m4 4v1 14 1h5v-1h-4v-14h14v12h1v-12-1h-1-14zm4 4v1 6 1h8v-1-6-1h-1-6zm1 1h6v6h-6z" fill="#b3b3b3"/></svg>

<?xml version="1.0" encoding="UTF-8" standalone="no"?>
<svg
   xmlns:dc="http://purl.org/dc/elements/1.1/"
   xmlns:cc="http://creativecommons.org/ns#"
   xmlns:rdf="http://www.w3.org/1999/02/22-rdf-syntax-ns#"
   xmlns:svg="http://www.w3.org/2000/svg"
   xmlns="http://www.w3.org/2000/svg"
   xmlns:sodipodi="http://sodipodi.sourceforge.net/DTD/sodipodi-0.dtd"
   xmlns:inkscape="http://www.inkscape.org/namespaces/inkscape"
   viewBox="0 0 24 24"
   version="1.1"
   id="svg8"
   sodipodi:docname="lc_graphicfilterrelief.svg"
   inkscape:version="0.92.4 (5da689c313, 2019-01-14)">
  <metadata
     id="metadata14">
    <rdf:RDF>
      <cc:Work
         rdf:about="">
        <dc:format>image/svg+xml</dc:format>
        <dc:type
           rdf:resource="http://purl.org/dc/dcmitype/StillImage" />
      </cc:Work>
    </rdf:RDF>
  </metadata>
  <defs
     id="defs12" />
  <sodipodi:namedview
     pagecolor="#ffffff"
     bordercolor="#666666"
     borderopacity="1"
     objecttolerance="10"
     gridtolerance="10"
     guidetolerance="10"
     inkscape:pageopacity="0"
     inkscape:pageshadow="2"
     inkscape:window-width="1920"
     inkscape:window-height="1011"
     id="namedview10"
     showgrid="true"
     inkscape:zoom="27.812867"
     inkscape:cx="11.614614"
     inkscape:cy="9.0679324"
     inkscape:window-x="0"
     inkscape:window-y="32"
     inkscape:window-maximized="1"
     inkscape:current-layer="svg8">
    <inkscape:grid
       type="xygrid"
       id="grid821" />
  </sodipodi:namedview>
  <path
     d="M 9,18 H 6 V 6 h 12 v 11 1 z M 19,17 V 5 H 5 V 19 H 9 19 Z M 9,9 v 6 h 6 V 9 Z m 1,1 h 4 v 4 h -4 z"
     id="path4"
     inkscape:connector-curvature="0"
     style="fill:#232629"
     sodipodi:nodetypes="cccccccccccccccccccccczc" />
  <path
     d="M 9,19 H 5 V 5 h 14 v 12 2 z M 20,17 V 5 4 H 19 5 4 v 1 14 1 H 9 20 Z M 8,8 v 1 6 1 h 8 V 15 9 8 H 15 9 Z m 1,1 h 6 v 6 H 9 Z"
     id="path6"
     inkscape:connector-curvature="0"
     style="fill:#b3b3b3"
     sodipodi:nodetypes="ccccccccccccccccccccccccccccccccccc" />
</svg>
